assets/logo/github-logo.svg

<svg width="40" height="39" viewBox="0 0 40 39" fill="none" xmlns="http://www.w3.org/2000/svg">
<g clip-path="url(#clip0_21_38)">
<path fill-rule="evenodd" clip-rule="evenodd" d="M19.9404 0C8.91388 0 0 8.91204 0 19.9374C0 28.7506 5.71143 36.2108 13.6347 38.8512C14.6253 39.0497 14.9882 38.4222 14.9882 37.8944C14.9882 37.4322 14.9555 35.8479 14.9555 34.1971C9.40857 35.3856 8.25347 31.8204 8.25347 31.8204C7.36204 29.5098 6.04122 28.9159 6.04122 28.9159C4.22571 27.6946 6.17347 27.6946 6.17347 27.6946C8.18735 27.8266 9.24408 29.7411 9.24408 29.7411C11.0265 32.7777 13.8988 31.9197 15.0543 31.3914C15.2192 30.104 15.7478 29.2128 16.309 28.7178C11.8849 28.2556 7.2302 26.5392 7.2302 18.881C7.2302 16.7024 8.02204 14.92 9.27673 13.5337C9.07878 13.0387 8.38531 10.9918 9.4751 8.25214C9.4751 8.25214 11.1588 7.7239 14.9551 10.2987C16.5804 9.86225 18.2566 9.64024 19.9404 9.63837C21.6241 9.63837 23.3404 9.86968 24.9253 10.2987C28.722 7.7239 30.4057 8.25214 30.4057 8.25214C31.4955 10.9918 30.8016 13.0387 30.6037 13.5337C31.8914 14.92 32.6506 16.7024 32.6506 18.881C32.6506 26.5392 27.9959 28.2224 23.5388 28.7178C24.2653 29.3449 24.8922 30.533 24.8922 32.4147C24.8922 35.0883 24.8596 37.2341 24.8596 37.894C24.8596 38.4222 25.2229 39.0497 26.2131 38.8516C34.1363 36.2104 39.8478 28.7506 39.8478 19.9374C39.8804 8.91204 30.9339 0 19.9404 0Z" fill="white"/>
</g>
<defs>
<clipPath id="clip0_21_38">
<rect width="40" height="38.8889" fill="white"/>
</clipPath>
</defs>
</svg>

<svg xmlns="http://www.w3.org/2000/svg" width="40" height="39" fill="none"><g clip-path="url(#a)"><path fill="#fff" fill-rule="evenodd" d="M19.94 0C8.914 0 0 8.912 0 19.937c0 8.814 5.711 16.274 13.635 18.914.99.199 1.353-.429 1.353-.957 0-.462-.032-2.046-.032-3.697-5.547 1.189-6.703-2.377-6.703-2.377-.891-2.31-2.212-2.904-2.212-2.904-1.815-1.221.132-1.221.132-1.221 2.014.132 3.071 2.046 3.071 2.046 1.783 3.037 4.655 2.179 5.81 1.65.165-1.287.694-2.178 1.255-2.673-4.424-.462-9.079-2.179-9.079-9.837 0-2.179.792-3.961 2.047-5.347-.198-.495-.892-2.542.198-5.282 0 0 1.684-.528 5.48 2.047a19.3 19.3 0 0 1 4.985-.66c1.684 0 3.4.23 4.985.66 3.797-2.575 5.48-2.047 5.48-2.047 1.09 2.74.397 4.787.199 5.282 1.287 1.386 2.047 3.168 2.047 5.347 0 7.658-4.655 9.341-9.112 9.837.726.627 1.353 1.815 1.353 3.697 0 2.673-.032 4.82-.032 5.479 0 .528.363 1.156 1.353.958 7.923-2.642 13.635-10.101 13.635-18.915C39.88 8.912 30.934 0 19.94 0" clip-rule="evenodd"/></g><defs><clipPath id="a"><path fill="#fff" d="M0 0h40v38.889H0z"/></clipPath></defs></svg>
